assets/stickers/emoticons/stickers/imgly_sticker_emoticons_attention.svg

<svg height="60" viewBox="0 0 62 60" width="62" xmlns="http://www.w3.org/2000/svg"><g fill="none"><ellipse cx="11.60374" cy="50.79842" fill="#ea7103" rx="8.799872" ry="8.499876" transform="matrix(.96181398 -.27370398 .27370398 .96181398 -14.460629 5.115779)"/><g transform=""><path d="m61.3 35.2c0 13-11.9 23.5-30.3 23.5s-30.3-10.5-30.3-23.5 11.9-32.5 30.3-32.5 30.3 19.5 30.3 32.5z" fill="#f7910b"/><path d="m61.3 35.2c0 13-11.9 19.5-30.3 19.5s-30.3-6.5-30.3-19.5 11.9-34.5 30.3-34.5 30.3 21.5 30.3 34.5z" fill="#f7910b"/><path d="m31 .7c18.4 0 30.3 21.5 30.3 34.5s-11.9 19.5-30.3 19.5" fill="#f9a908"/><path d="m61.3 35.2c0 13-11.9 19.5-30.3 19.5s-30.3-6.5-30.3-19.5 11.9-32.5 30.3-32.5 30.3 19.5 30.3 32.5z" fill="#f9a908"/><path d="m.7 35.2c0-13 11.9-32.5 30.3-32.5" fill="#f9c55d"/><path d="m31 2.7c18.4 0 30.3 19.5 30.3 32.5s-11.9 23.5-30.3 23.5" fill="#f7910b"/><path d="m31 2.7c18.4 0 30.3 19.5 30.3 32.5" fill="#ea7103"/><g transform="translate(17 19)"><ellipse cx="3.6" cy="4.4" fill="#ea7103" rx="3.2" ry="3.2"/><ellipse cx="24.4" cy="4.4" fill="#ea7103" rx="3.2" ry="3.2"/><ellipse cx="3.6" cy="3.5" fill="#1e4784" rx="3.2" ry="3.2"/><path d="m3.6.3c1.8 0 3.2 1.4 3.2 3.2s-1.4 3.2-3.2 3.2" fill="#00233f"/><ellipse cx="24.4" cy="3.5" fill="#1e4784" rx="3.2" ry="3.2"/><path d="m24.4.3c1.8 0 3.2 1.4 3.2 3.2s-1.4 3.2-3.2 3.2" fill="#00233f"/></g><g fill="#19bca4" transform="translate(18 8)"><path d="m6.2 8.2c-.3.8-1.5-.2-3.2-.9s-3.2-.9-2.8-1.7c.3-.8 2-.9 3.6-.2 1.7.8 2.7 2.1 2.4 2.8z"/><path d="m19.7 4.6c.4.8 1.5-.3 3.1-1.2s3.1-1.2 2.7-1.9c-.4-.8-2-.7-3.6.2-1.7.8-2.6 2.1-2.2 2.9z"/></g><g fill="#109da0" transform="translate(18 9)"><path d="m6.2 7.2c-.3.8-1.5-.2-3.2-.9s-3.2-.9-2.8-1.7"/><path d="m19.7 3.6c.4.8 1.5-.3 3.1-1.2s3.1-1.2 2.7-1.9"/></g><g transform="translate(11 26)"><path d="m15.8 2.5c0 1.2-3.5.7-7.8.7s-7.8.6-7.8-.7c0-1.2 3.5-2.2 7.8-2.2s7.8 1 7.8 2.2z" fill="#f9c55d"/><path d="m39.8 2.5c0 1.2-3.5.7-7.8.7s-7.8.6-7.8-.7c0-1.2 3.5-2.2 7.8-2.2s7.8 1 7.8 2.2z" fill="#f9a908"/></g><ellipse cx="9.3" cy="32.2" fill="#f7910b" rx="1" ry="1"/><ellipse cx="4.8" cy="34.2" fill="#f7910b" rx="1.1" ry="1.1"/><ellipse cx="7.8" cy="30.2" fill="#f7910b" rx="1" ry="1"/><circle cx="12.4" cy="32" fill="#f7910b" r="1"/><circle cx="51.6" cy="32.5" fill="#f9a908" r="1"/><circle cx="54.1" cy="33.9" fill="#f9a908" r="1"/><circle cx="48.8" cy="25.1" fill="#f9a908" r="1"/><ellipse cx="48.3" cy="36.7" fill="#f9a908" rx="1.3" ry="1.3"/><circle cx="55.5" cy="36.8" fill="#f9a908" r="1"/><ellipse cx="8.3" cy="36.2" fill="#f7910b" rx="1" ry="1"/><circle cx="9.1" cy="27.8" fill="#f7910b" r="1"/><g fill="#f9a908"><ellipse cx="3.8" cy="14" rx="1.1" ry="1.1"/><ellipse cx="7" cy="10.5" rx="1" ry="1"/><circle cx="58.2" cy="16.4" r="1"/><ellipse cx="57.4" cy="13.5" rx="1" ry="1"/><circle cx="60" cy="14" r="1"/><ellipse cx="5" cy="17" rx="1" ry="1"/></g></g><g transform="translate(1 30)"><path d="m22.7 10.3c.3 7.4-1.5 5.6-3.6 5.7s-3.8 2.1-4.1-5.3c-.3-7.4 1.3-10.4 3.4-10.5 2.2-.1 4 2.7 4.3 10.1z" fill="#ccf2e3"/><path d="m18.5.2c2.1-.1 4 2.8 4.3 10.2s-1.5 5.6-3.6 5.7" fill="#aad6c3"/><path d="m23 15.2c.3 6.8-3 12.7-9.9 13s-12.7-5-13-11.8 5.2-9.6 12.1-9.9c6.8-.3 10.5 1.9 10.8 8.7z" fill="#ccf2e3"/><path d="m23 15.2c.3 6.8-3 12.7-9.9 13s-9.6-5.7-9.6-12.5c0-5.3-2.5-8.1 8.3-9.2 6.8-.6 10.9 1.7 11.2 8.7z" fill="#aad6c3"/><path d="m27.3 14c1.7 1.9-.8 6.7-5.4 10.7s-9.7 4-11.4 2.1c-1.6-1.9.8-4.9 5.4-9 4.7-4 9.8-5.7 11.4-3.8z" fill="#ccf2e3"/><path d="m27.3 14c1.7 1.9-.8 6.7-5.4 10.7s-9.7 4-11.4 2.1" fill="#aad6c3"/><g fill="#e7f7ef"><path d="m16.4 2.8c-.4 1-.5 1.8-.2 2 .3.1.9-.6 1.3-1.5.4-1 .5-1.8.2-2s-.9.5-1.3 1.5z"/><path d="m2.4 14.6c.1 2.2-.2 4.1-.7 4.1s-1-1.8-1.2-4c-.1-2.2.2-2.8.7-2.8.7-.1 1.1.4 1.2 2.7z"/><path d="m20.7 15.4c1.6-1 3.1-1.5 3.4-1.1s-.8 1.6-2.4 2.6-2.2.9-2.5.5c-.2-.4-.1-1 1.5-2z"/></g><path d="m11.4 11c.3 2.7-.1 5-1 5.1s-1.8-2-2.1-4.7.3-3.6 1.1-3.7c.9-.1 1.7.6 2 3.3z" fill="#ccf2e3"/><path d="m8.7 11.1c0 1 .3 1.9.7 1.9.3 0 .5-.9.5-1.9s-.3-1.9-.7-1.9c-.3 0-.5.9-.5 1.9z" fill="#e7f7ef"/></g><g transform="translate(23 32)"><path d="m15.4 1.3c0 2.6-3.3 4.7-7.4 4.7s-7.4-2.1-7.4-4.7" fill="#f7910b"/><path d="m15 2h-14c-.6 0-1-.4-1-1s.4-1 1-1h14c.6 0 1 .4 1 1s-.4 1-1 1z" fill="#02243e"/></g></g></svg>

<?xml version="1.0" encoding="UTF-8"?>
<svg width="62px" height="60px" viewBox="0 0 62 60" version="1.1" xmlns="http://www.w3.org/2000/svg" xmlns:xlink="http://www.w3.org/1999/xlink">
    <!-- Generator: Sketch 43.1 (39012) - http://www.bohemiancoding.com/sketch -->
    <title>imgly_sticker_emoticons_attention</title>
    <desc>Created with Sketch.</desc>
    <defs></defs>
    <g id="Page-1" stroke="none" stroke-width="1" fill="none" fill-rule="evenodd">
        <g id="attention" transform="translate(-1.000000, 0.000000)" fill-rule="nonzero">
            <g id="Group">
                <ellipse id="Oval" fill="#EA7103" transform="translate(11.603740, 50.798420) rotate(-15.884795) translate(-11.603740, -50.798420) " cx="11.60374" cy="50.79842" rx="8.79987209" ry="8.49987645"></ellipse>
                <g transform="translate(1.000000, 0.000000)">
                    <path d="M61.3,35.2 C61.3,48.2 49.4,58.7 31,58.7 C12.6,58.7 0.7,48.2 0.7,35.2 C0.7,22.2 12.6,2.7 31,2.7 C49.4,2.7 61.3,22.2 61.3,35.2 Z" id="Shape" fill="#F7910B"></path>
                    <path d="M61.3,35.2 C61.3,48.2 49.4,54.7 31,54.7 C12.6,54.7 0.7,48.2 0.7,35.2 C0.7,22.2 12.6,0.7 31,0.7 C49.4,0.7 61.3,22.2 61.3,35.2 Z" id="Shape" fill="#F7910B"></path>
                    <path d="M31,0.7 C49.4,0.7 61.3,22.2 61.3,35.2 C61.3,48.2 49.4,54.7 31,54.7" id="Shape" fill="#F9A908"></path>
                    <path d="M61.3,35.2 C61.3,48.2 49.4,54.7 31,54.7 C12.6,54.7 0.7,48.2 0.7,35.2 C0.7,22.2 12.6,2.7 31,2.7 C49.4,2.7 61.3,22.2 61.3,35.2 Z" id="Shape" fill="#F9A908"></path>
                    <path d="M0.7,35.2 C0.7,22.2 12.6,2.7 31,2.7" id="Shape" fill="#F9C55D"></path>
                    <path d="M31,2.7 C49.4,2.7 61.3,22.2 61.3,35.2 C61.3,48.2 49.4,58.7 31,58.7" id="Shape" fill="#F7910B"></path>
                    <path d="M31,2.7 C49.4,2.7 61.3,22.2 61.3,35.2" id="Shape" fill="#EA7103"></path>
                    <g transform="translate(17.000000, 19.000000)">
                        <ellipse id="Oval" fill="#EA7103" cx="3.6" cy="4.4" rx="3.2" ry="3.2"></ellipse>
                        <ellipse id="Oval" fill="#EA7103" cx="24.4" cy="4.4" rx="3.2" ry="3.2"></ellipse>
                        <ellipse id="Oval" fill="#1E4784" cx="3.6" cy="3.5" rx="3.2" ry="3.2"></ellipse>
                        <path d="M3.6,0.3 C5.4,0.3 6.8,1.7 6.8,3.5 C6.8,5.3 5.4,6.7 3.6,6.7" id="Shape" fill="#00233F"></path>
                        <ellipse id="Oval" fill="#1E4784" cx="24.4" cy="3.5" rx="3.2" ry="3.2"></ellipse>
                        <path d="M24.4,0.3 C26.2,0.3 27.6,1.7 27.6,3.5 C27.6,5.3 26.2,6.7 24.4,6.7" id="Shape" fill="#00233F"></path>
                    </g>
                    <g transform="translate(18.000000, 8.000000)" id="Shape">
                        <g fill="#19BCA4">
                            <path d="M6.2,8.2 C5.9,9 4.7,8 3,7.3 C1.3,6.6 -0.2,6.4 0.2,5.6 C0.5,4.8 2.2,4.7 3.8,5.4 C5.5,6.2 6.5,7.5 6.2,8.2 Z"></path>
                            <path d="M19.7,4.6 C20.1,5.4 21.2,4.3 22.8,3.4 C24.4,2.5 25.9,2.2 25.5,1.5 C25.1,0.7 23.5,0.8 21.9,1.7 C20.2,2.5 19.3,3.8 19.7,4.6 Z"></path>
                        </g>
                        <g transform="translate(0.000000, 1.000000)" fill="#109DA0">
                            <path d="M6.2,7.2 C5.9,8 4.7,7 3,6.3 C1.3,5.6 -0.2,5.4 0.2,4.6"></path>
                            <path d="M19.7,3.6 C20.1,4.4 21.2,3.3 22.8,2.4 C24.4,1.5 25.9,1.2 25.5,0.5"></path>
                        </g>
                    </g>
                    <g transform="translate(11.000000, 26.000000)" id="Shape">
                        <path d="M15.8,2.5 C15.8,3.7 12.3,3.2 8,3.2 C3.7,3.2 0.2,3.8 0.2,2.5 C0.2,1.3 3.7,0.3 8,0.3 C12.3,0.3 15.8,1.3 15.8,2.5 Z" fill="#F9C55D"></path>
                        <path d="M39.8,2.5 C39.8,3.7 36.3,3.2 32,3.2 C27.7,3.2 24.2,3.8 24.2,2.5 C24.2,1.3 27.7,0.3 32,0.3 C36.3,0.3 39.8,1.3 39.8,2.5 Z" fill="#F9A908"></path>
                    </g>
                    <ellipse id="Oval" fill="#F7910B" cx="9.3" cy="32.2" rx="1" ry="1"></ellipse>
                    <ellipse id="Oval" fill="#F7910B" cx="4.8" cy="34.2" rx="1.1" ry="1.1"></ellipse>
                    <ellipse id="Oval" fill="#F7910B" cx="7.8" cy="30.2" rx="1" ry="1"></ellipse>
                    <circle id="Oval" fill="#F7910B" cx="12.4" cy="32" r="1"></circle>
                    <circle id="Oval" fill="#F9A908" cx="51.6" cy="32.5" r="1"></circle>
                    <circle id="Oval" fill="#F9A908" cx="54.1" cy="33.9" r="1"></circle>
                    <circle id="Oval" fill="#F9A908" cx="48.8" cy="25.1" r="1"></circle>
                    <ellipse id="Oval" fill="#F9A908" cx="48.3" cy="36.7" rx="1.3" ry="1.3"></ellipse>
                    <circle id="Oval" fill="#F9A908" cx="55.5" cy="36.8" r="1"></circle>
                    <ellipse id="Oval" fill="#F7910B" cx="8.3" cy="36.2" rx="1" ry="1"></ellipse>
                    <circle id="Oval" fill="#F7910B" cx="9.1" cy="27.8" r="1"></circle>
                    <ellipse id="Oval" fill="#F9A908" cx="3.8" cy="14" rx="1.1" ry="1.1"></ellipse>
                    <ellipse id="Oval" fill="#F9A908" cx="7" cy="10.5" rx="1" ry="1"></ellipse>
                    <circle id="Oval" fill="#F9A908" cx="58.2" cy="16.4" r="1"></circle>
                    <ellipse id="Oval" fill="#F9A908" cx="57.4" cy="13.5" rx="1" ry="1"></ellipse>
                    <circle id="Oval" fill="#F9A908" cx="60" cy="14" r="1"></circle>
                    <ellipse id="Oval" fill="#F9A908" cx="5" cy="17" rx="1" ry="1"></ellipse>
                </g>
            </g>
            <g id="Group" transform="translate(2.000000, 30.000000)">
                <g id="Shape">
                    <g>
                        <path d="M22.7,10.3 C23,17.7 21.2,15.9 19.1,16 C17,16.1 15.3,18.1 15,10.7 C14.7,3.3 16.3,0.3 18.4,0.2 C20.6,0.1 22.4,2.9 22.7,10.3 Z" fill="#CCF2E3"></path>
                        <path d="M18.5,0.2 C20.6,0.1 22.5,3 22.8,10.4 C23.1,17.8 21.3,16 19.2,16.1" fill="#AAD6C3"></path>
                        <path d="M23,15.2 C23.3,22 20,27.9 13.1,28.2 C6.2,28.5 0.4,23.2 0.1,16.4 C-0.2,9.6 5.3,6.8 12.2,6.5 C19,6.2 22.7,8.4 23,15.2 Z" fill="#CCF2E3"></path>
                        <path d="M23,15.2 C23.3,22 20,27.9 13.1,28.2 C6.2,28.5 3.5,22.5 3.5,15.7 C3.5,10.4 1,7.6 11.8,6.5 C18.6,5.9 22.7,8.2 23,15.2 Z" fill="#AAD6C3"></path>
                        <path d="M27.3,14 C29,15.9 26.5,20.7 21.9,24.7 C17.3,28.7 12.2,28.7 10.5,26.8 C8.9,24.9 11.3,21.9 15.9,17.8 C20.6,13.8 25.7,12.1 27.3,14 Z" fill="#CCF2E3"></path>
                        <path d="M27.3,14 C29,15.9 26.5,20.7 21.9,24.7 C17.3,28.7 12.2,28.7 10.5,26.8" fill="#AAD6C3"></path>
                    </g>
                    <path d="M16.4,2.8 C16,3.8 15.9,4.6 16.2,4.8 C16.5,4.9 17.1,4.2 17.5,3.3 C17.9,2.3 18,1.5 17.7,1.3 C17.4,1.1 16.8,1.8 16.4,2.8 Z" fill="#E7F7EF"></path>
                    <path d="M2.4,14.6 C2.5,16.8 2.2,18.7 1.7,18.7 C1.2,18.7 0.7,16.9 0.5,14.7 C0.4,12.5 0.7,11.9 1.2,11.9 C1.9,11.8 2.3,12.3 2.4,14.6 Z" fill="#E7F7EF"></path>
                    <path d="M20.7,15.4 C22.3,14.4 23.8,13.9 24.1,14.3 C24.4,14.7 23.3,15.9 21.7,16.9 C20.1,17.9 19.5,17.8 19.2,17.4 C19,17 19.1,16.4 20.7,15.4 Z" fill="#E7F7EF"></path>
                </g>
                <path d="M11.4,11 C11.7,13.7 11.3,16 10.4,16.1 C9.5,16.2 8.6,14.1 8.3,11.4 C8,8.7 8.6,7.8 9.4,7.7 C10.3,7.6 11.1,8.3 11.4,11 Z" id="Shape" fill="#CCF2E3"></path>
                <path d="M8.7,11.1 C8.7,12.1 9,13 9.4,13 C9.7,13 9.9,12.1 9.9,11.1 C9.9,10.1 9.6,9.2 9.2,9.2 C8.9,9.2 8.7,10.1 8.7,11.1 Z" id="Shape" fill="#E7F7EF"></path>
            </g>
            <g id="Group" transform="translate(24.000000, 32.000000)">
                <path d="M15.4,1.3 C15.4,3.9 12.1,6 8,6 C3.9,6 0.6,3.9 0.6,1.3" id="Shape" fill="#F7910B"></path>
                <path d="M15,2 L1,2 C0.4,2 0,1.6 0,1 C0,0.4 0.4,0 1,0 L15,0 C15.6,0 16,0.4 16,1 C16,1.6 15.6,2 15,2 Z" id="Shape" fill="#02243E"></path>
            </g>
        </g>
    </g>
</svg>
